X: 156
T: Dusty Windowsills
M:6/8
L:1/8
C:John Harling
R:jig
K:Ador
E|"Am"A2 B cBA|eAB cBA|"G"~G3 EGG|DGG EFG|
"Am"A2 B cBA|e2 d efg|age "G"dBG|"Am"ABA A2:|
|: g|"Am"a3 age|"G"dBd ~g3|"Em"gag gfe|"G"dBA GFG|
"C"EGG "G"DGG|"C(Am7)"EGG "Am"ABc|"G"Bed BAG|"Am"ABA A2:|
|: G|"Am"ABA gAf|ABA geB|"G"GAG eGd|GAG edB|
"Am"ABA gAf|ABA "C(Am7)"efg|"Am"age "G"dBG|"Am"ABA A2:||


